docusaurus/static/img/openziti-logo-light.svg

<?xml version="1.0" encoding="UTF-8" standalone="no"?>
<!-- Generated by Microsoft Visio, SVG Export openziti-logo-dark.svg openziti-logo-dark -->

<svg
        width="53.0156in"
        height="9.5in"
        viewBox="0 0 3817.12 684"
        xml:space="preserve"
        color-interpolation-filters="sRGB"
        class="st13"
        version="1.1"
        id="svg22"
        sodipodi:docname="openziti-logo-dark.svg"
        inkscape:version="1.4.2 (f4327f4, 2025-05-13)"
        xmlns:inkscape="http://www.inkscape.org/namespaces/inkscape"
        xmlns:sodipodi="http://sodipodi.sourceforge.net/DTD/sodipodi-0.dtd"
        xmlns="http://www.w3.org/2000/svg"
        xmlns:svg="http://www.w3.org/2000/svg"><sodipodi:namedview
   id="namedview22"
   pagecolor="#ffffff"
   bordercolor="#000000"
   borderopacity="0.25"
   inkscape:showpageshadow="2"
   inkscape:pageopacity="0.0"
   inkscape:pagecheckerboard="0"
   inkscape:deskcolor="#d1d1d1"
   inkscape:document-units="in"
   inkscape:zoom="0.16991689"
   inkscape:cx="2103.9697"
   inkscape:cy="-653.26053"
   inkscape:window-width="2560"
   inkscape:window-height="1369"
   inkscape:window-x="2552"
   inkscape:window-y="-8"
   inkscape:window-maximized="1"
   inkscape:current-layer="svg22" />
    <style
            type="text/css"
            id="style1">
	<![CDATA[
		.st1 {fill:#789440;stroke:#789440;stroke-linecap:round;stroke-linejoin:round;stroke-width:0.75}
		.st2 {fill:none;stroke:none;stroke-linecap:round;stroke-linejoin:round;stroke-width:0.75}
		.st3 {fill:#3f3f3f;font-family:Russo One;font-size:50em}
		.st4 {font-size:0.8em}
		.st5 {fill:#d1d5db;fill-opacity:0.75;stroke:#121a36;stroke-linecap:butt;stroke-width:1.75781}
		.st6 {fill:none;stroke:#121a36;stroke-linecap:butt;stroke-opacity:0.85;stroke-width:25.1151}
		.st7 {fill:#6b7280;fill-opacity:0.6;stroke:none;stroke-linecap:butt;stroke-width:0.292969}
		.st8 {fill:#ffffff;fill-opacity:0.75;stroke:none;stroke-linecap:butt;stroke-width:0.14398}
		.st9 {fill:#010101;stroke:none;stroke-linecap:butt;stroke-width:0.14398}
		.st10 {fill:url(#grad0-29);stroke:none;stroke-linecap:butt;stroke-width:0.14398}
		.st11 {fill:#3f3f3f;font-family:Russo One;font-size:16.6667em}
		.st12 {font-size:0.799999em}
		.st13 {fill:none;fill-rule:evenodd;font-size:12px;overflow:visible;stroke-linecap:square;stroke-miterlimit:3}
	]]>
	</style>

    <defs
            id="Patterns_And_Gradients">
		<linearGradient
                id="grad0-29"
                x1="0"
                y1="261.33309"
                x2="422.675"
                y2="261.33309"
                gradientTransform="scale(1.0000118,0.99998817)"
                gradientUnits="userSpaceOnUse">
			<stop
                    offset="0.005"
                    stop-color="#fc0147"
                    stop-opacity="1"
                    id="stop1" />
            <stop
                    offset="0.04"
                    stop-color="#f4044d"
                    stop-opacity="1"
                    id="stop2" />
            <stop
                    offset="0.9"
                    stop-color="#0068f9"
                    stop-opacity="1"
                    id="stop3" />
		</linearGradient>
	
		
		
		
		
		
		
	
			
			
			
					
			
			
			
					</defs>
    <text
            x="688.375"
            y="450"
            class="st3"
            id="text6">O<tspan
            class="st4"
            id="tspan5">PEN</tspan>Z<tspan
            class="st4"
            id="tspan6">ITI</tspan></text><g
            id="group165-8"
            transform="translate(53.625,-44.9997)">
			<title
                    id="title6">Sheet.165</title>
        <g
                id="group105-9">
				<title
                        id="title7">Sheet.105</title>
            <g
                    id="shape106-10">
					<title
                            id="title8">Sheet.106</title>
                <path
                        d="m 288,81 c 5.52,0 11.04,1.18 16.07,3.42 l 225.87,94.25 c 26.39,10.97 46.06,36.57 45.94,67.47 -0.6,117.01 -49.54,331.11 -256.21,428.42 -20.03,9.44 -43.31,9.44 -63.34,0 C 49.66,577.25 0.72,363.15 0.12,246.14 0,215.24 19.67,189.64 46.06,178.67 L 272.05,84.42 C 276.96,82.18 282.48,81 288,81 Z"
                        class="st5"
                        id="path8" />
				</g>
            <g
                    id="shape107-12">
					<title
                            id="title9">Sheet.107</title>
                <path
                        d="m 288,81 c 5.52,0 11.04,1.18 16.07,3.42 l 225.87,94.25 c 26.39,10.97 46.06,36.57 45.94,67.47 -0.6,117.01 -49.54,331.11 -256.21,428.42 -20.03,9.44 -43.31,9.44 -63.34,0 C 49.66,577.25 0.72,363.15 0.12,246.14 0,215.24 19.67,189.64 46.06,178.67 L 272.05,84.42 C 276.96,82.18 282.48,81 288,81 Z"
                        class="st6"
                        id="path9" />
				</g>
            <g
                    id="shape108-14"
                    transform="translate(288,-4.71831)">
					<title
                            id="title10">Sheet.108</title>
                <path
                        d="m 16.07,89.14 225.87,94.25 c 26.39,10.97 46.06,36.56 45.94,67.47 C 287.28,367.87 238.34,581.97 31.67,679.28 21.59,684 10.08,684 0,679.28 V 85.72 c 5.52,0 11.04,1.18 16.07,3.42 z"
                        class="st7"
                        id="path10" />
				</g>
			</g>
		</g><g
            id="group167-16"
            transform="translate(130.285,-130.665)">
			<title
                    id="title11">Sheet.167</title>
        <g
                id="group168-17">
				<title
                        id="title12">Page-1</title>
            <g
                    id="group169-18"
                    transform="translate(5.91615,-5.65833)">
					<title
                            id="title13">Sheet.169</title>
                <g
                        id="shape170-19">
						<title
                                id="title14">Sheet.170</title>
                    <circle
                            cx="205.64999"
                            cy="478.35001"
                            class="st8"
                            id="ellipse14"
                            r="205.64999" />
					</g>
				</g>
            <g
                    id="group171-21"
                    transform="translate(108.918,-42.2221)">
					<title
                            id="title15">Lightning_Crashes</title>
                <g
                        id="shape172-22">
						<title
                                id="title16">Sheet.172</title>
                    <path
                            d="M 102.95,352.4 0,513.04 59.97,551.32 69.63,536.15 102.39,684 203.73,522.45 l -58.25,-37.22 -9.71,15.32 z m 48.85,159.43 25.58,16.89 -66.59,104.77 -32.82,-148.16 -24.88,38.94 -25.18,-16.03 67,-105.03 32.51,146.9 z"
                            class="st9"
                            id="path16" />
					</g>
				</g>
            <g
                    id="group173-24">
					<title
                            id="title17">Sheet.173</title>
                <g
                        id="group174-25">
						<title
                                id="title18">Sheet.174</title>
                    <g
                            id="shape175-26">
							<title
                                    id="title19">Sheet.175</title>
                        <path
                                d="m 211.36,684 c -28.52,0 -56.23,-5.56 -82.27,-16.58 C 103.91,656.8 81.36,641.53 61.89,622.16 42.53,602.8 27.25,580.14 16.64,554.96 5.56,528.92 0,501.21 0,472.69 c 0,-28.52 5.56,-56.23 16.59,-82.27 10.61,-25.18 25.88,-47.73 45.25,-67.2 19.37,-19.37 42.02,-34.64 67.2,-45.26 26.09,-11.07 53.75,-16.63 82.32,-16.63 28.57,0 56.23,5.56 82.27,16.58 25.18,10.62 47.74,25.89 67.2,45.26 19.37,19.37 34.64,42.02 45.26,67.2 11.02,26.04 16.59,53.75 16.59,82.27 0,28.52 -5.57,56.23 -16.59,82.27 -10.62,25.18 -25.89,47.73 -45.26,67.2 -19.36,19.37 -42.02,34.64 -67.2,45.26 C 267.59,678.44 239.88,684 211.36,684 Z m 0,-406.24 c -52.08,0 -101.03,20.28 -137.79,57.09 -36.91,36.81 -57.14,85.76 -57.14,137.84 0,52.08 20.28,101.03 57.09,137.79 36.81,36.86 85.76,57.09 137.79,57.09 52.03,0 101.03,-20.28 137.79,-57.09 36.87,-36.81 57.09,-85.76 57.09,-137.79 0,-52.03 -20.27,-101.03 -57.09,-137.79 -36.76,-36.91 -85.7,-57.14 -137.74,-57.14 z"
                                class="st10"
                                id="path19"
                                style="fill:url(#grad0-29)" />
						</g>
					</g>
				</g>
			</g>
		</g><text
            x="688"
            y="658.5"
            class="st11"
            id="text22">B<tspan
            class="st12"
            id="tspan20">Y</tspan> N<tspan
            class="st12"
            id="tspan21">ET</tspan>F<tspan
            class="st12"
            id="tspan22">OUNDRY</tspan></text>
</svg>

<?xml version="1.0" encoding="UTF-8" standalone="no"?>
<!DOCTYPE svg PUBLIC "-//W3C//DTD SVG 1.1//EN" "http://www.w3.org/Graphics/SVG/1.1/DTD/svg11.dtd">
<!-- Generated by Microsoft Visio, SVG Export openziti-logo-light.svg openziti-logo-light -->
<svg xmlns="http://www.w3.org/2000/svg" xmlns:xlink="http://www.w3.org/1999/xlink" xmlns:ev="http://www.w3.org/2001/xml-events"
		width="53.0156in" height="9.5in" viewBox="0 0 3817.12 684" xml:space="preserve" color-interpolation-filters="sRGB"
		class="st11">
	<style type="text/css">
	<![CDATA[
		.st1 {}
		.st2 {fill:none;stroke:none;stroke-linecap:round;stroke-linejoin:round;stroke-width:0.75}
		.st3 {fill:#3f3f3f;font-family:Russo One;font-size:50em}
		.st4 {font-size:0.8em}
		.st5 {fill:#d1d5db;fill-opacity:0.75;stroke:#121a36;stroke-linecap:butt;stroke-width:1.75781}
		.st6 {fill:none;stroke:#121a36;stroke-linecap:butt;stroke-opacity:0.85;stroke-width:25.1151}
		.st7 {fill:#6b7280;fill-opacity:0.6;stroke:none;stroke-linecap:butt;stroke-width:0.292969}
		.st8 {fill:#ffffff;fill-opacity:0.75;stroke:none;stroke-linecap:butt;stroke-width:0.14398}
		.st9 {fill:#010101;stroke:none;stroke-linecap:butt;stroke-width:0.14398}
		.st10 {fill:url(#grad0-30);stroke:none;stroke-linecap:butt;stroke-width:0.14398}
		.st11 {fill:none;fill-rule:evenodd;font-size:12px;overflow:visible;stroke-linecap:square;stroke-miterlimit:3}
	]]>
	</style>

	<defs id="Patterns_And_Gradients">
		<linearGradient id="grad0-30" x1="0" y1="0" x2="1" y2="0" gradientTransform="rotate(44.999995766921 0.5 0.5)">
			<stop offset="0.005" stop-color="#fc0147" stop-opacity="1"/>
			<stop offset="0.04" stop-color="#f4044d" stop-opacity="1"/>
			<stop offset="0.9" stop-color="#0068f9" stop-opacity="1"/>
		</linearGradient>
	</defs>
	<g>
		<title>openziti-logo-light</title>
		<g id="group1-1">
			<title>Sheet.1</title>
			<g id="shape2-2">
				<title>Sheet.2</title>
				<rect x="0" y="0" width="3816.37" height="684" class="st1"/>
			</g>
			<g id="shape3-4" transform="translate(684.375,-9)">
				<title>Sheet.3</title>
				<desc>OpenZiti</desc>
				<rect x="0" y="81" width="3132" height="603" class="st2"/>
				<text x="4" y="562.5" class="st3">O<tspan class="st4">PEN</tspan>Z<tspan class="st4">ITI</tspan></text>			</g>
			<g id="group4-9" transform="translate(53.625,-44.9997)">
				<title>Sheet.4</title>
				<g id="group5-10">
					<title>Sheet.5</title>
					<g id="shape6-11">
						<title>Sheet.6</title>
						<path d="M288 81 C293.52 81 299.04 82.18 304.07 84.42 L529.94 178.67 C556.33 189.64 576 215.24 575.88 246.14
									 C575.28 363.15 526.34 577.25 319.67 674.56 C299.64 684 276.36 684 256.33 674.56 C49.66 577.25
									 0.72 363.15 0.12 246.14 C0 215.24 19.67 189.64 46.06 178.67 L272.05 84.42 C276.96 82.18 282.48
									 81 288 81 Z" class="st5"/>
					</g>
					<g id="shape7-13">
						<title>Sheet.7</title>
						<path d="M288 81 C293.52 81 299.04 82.18 304.07 84.42 L529.94 178.67 C556.33 189.64 576 215.24 575.88 246.14
									 C575.28 363.15 526.34 577.25 319.67 674.56 C299.64 684 276.36 684 256.33 674.56 C49.66 577.25
									 0.72 363.15 0.12 246.14 C0 215.24 19.67 189.64 46.06 178.67 L272.05 84.42 C276.96 82.18 282.48
									 81 288 81 Z" class="st6"/>
					</g>
					<g id="shape8-15" transform="translate(288,-4.71831)">
						<title>Sheet.8</title>
						<path d="M16.07 89.14 L241.94 183.39 C268.33 194.36 288 219.95 287.88 250.86 C287.28 367.87 238.34 581.97
									 31.67 679.28 C21.59 684 10.08 684 0 679.28 L0 85.72 C5.52 85.72 11.04 86.9 16.07 89.14 Z"
								class="st7"/>
					</g>
				</g>
			</g>
		</g>
		<g id="group9-17" transform="translate(130.285,-130.665)">
			<title>Sheet.9</title>
			<g id="group10-18">
				<title>Page-1</title>
				<g id="group11-19" transform="translate(5.91615,-5.65833)">
					<title>Sheet.11</title>
					<g id="shape12-20">
						<title>Sheet.12</title>
						<ellipse cx="205.65" cy="478.35" rx="205.65" ry="205.65" class="st8"/>
					</g>
				</g>
				<g id="group13-22" transform="translate(108.918,-42.2221)">
					<title>Lightning_Crashes</title>
					<g id="shape14-23">
						<title>Sheet.14</title>
						<path d="M102.95 352.4 L0 513.04 L59.97 551.32 L69.63 536.15 L102.39 684 L203.73 522.45 L145.48 485.23 L135.77
									 500.55 L102.95 352.4 ZM151.8 511.83 L177.38 528.72 L110.79 633.49 L77.97 485.33 L53.09 524.27
									 L27.91 508.24 L94.91 403.21 L127.42 550.11 L151.8 511.83 Z" class="st9"/>
					</g>
				</g>
				<g id="group15-25">
					<title>Sheet.15</title>
					<g id="group16-26">
						<title>Sheet.16</title>
						<g id="shape17-27">
							<title>Sheet.17</title>
							<path d="M211.36 684 C182.84 684 155.13 678.44 129.09 667.42 C103.91 656.8 81.36 641.53 61.89 622.16
										 C42.53 602.8 27.25 580.14 16.64 554.96 C5.56 528.92 0 501.21 0 472.69 C0 444.17 5.56 416.46
										 16.59 390.42 C27.2 365.24 42.47 342.69 61.84 323.22 C81.21 303.85 103.86 288.58 129.04 277.96
										 C155.13 266.89 182.79 261.33 211.36 261.33 C239.93 261.33 267.59 266.89 293.63 277.91 C318.81
										 288.53 341.37 303.8 360.83 323.17 C380.2 342.54 395.47 365.19 406.09 390.37 C417.11 416.41
										 422.68 444.12 422.68 472.64 C422.68 501.16 417.11 528.87 406.09 554.91 C395.47 580.09 380.2
										 602.64 360.83 622.11 C341.47 641.48 318.81 656.75 293.63 667.37 C267.59 678.44 239.88 684
										 211.36 684 ZM211.36 277.76 C159.28 277.76 110.33 298.04 73.57 334.85 C36.66 371.66 16.43
										 420.61 16.43 472.69 C16.43 524.77 36.71 573.72 73.52 610.48 C110.33 647.34 159.28 667.57
										 211.31 667.57 C263.34 667.57 312.34 647.29 349.1 610.48 C385.97 573.67 406.19 524.72 406.19
										 472.69 C406.19 420.66 385.92 371.66 349.1 334.9 C312.34 297.99 263.4 277.76 211.36 277.76
										 Z" class="st10"/>
						</g>
					</g>
				</g>
			</g>
		</g>
	</g>
</svg>
